Numix-Light/16/status/indicator-keyboard-Ja-3.svg

<?xml version="1.0" encoding="UTF-8" standalone="no"?>
<svg
   xmlns:dc="http://purl.org/dc/elements/1.1/"
   xmlns:cc="http://creativecommons.org/ns#"
   xmlns:rdf="http://www.w3.org/1999/02/22-rdf-syntax-ns#"
   xmlns:svg="http://www.w3.org/2000/svg"
   xmlns="http://www.w3.org/2000/svg"
   xmlns:sodipodi="http://sodipodi.sourceforge.net/DTD/sodipodi-0.dtd"
   xmlns:inkscape="http://www.inkscape.org/namespaces/inkscape"
   viewBox="0 0 16 16"
   id="svg2"
   version="1.1"
   inkscape:version="0.91 r13725"
   sodipodi:docname="indicator-keyboard-Ja-3.svg">
  <metadata
     id="metadata14">
    <rdf:RDF>
      <cc:Work
         rdf:about="">
        <dc:format>image/svg+xml</dc:format>
        <dc:type
           rdf:resource="http://purl.org/dc/dcmitype/StillImage" />
      </cc:Work>
    </rdf:RDF>
  </metadata>
  <defs
     id="defs12" />
  <sodipodi:namedview
     pagecolor="#ffffff"
     bordercolor="#666666"
     borderopacity="1"
     objecttolerance="10"
     gridtolerance="10"
     guidetolerance="10"
     inkscape:pageopacity="0"
     inkscape:pageshadow="2"
     inkscape:window-width="640"
     inkscape:window-height="480"
     id="namedview10"
     showgrid="false"
     inkscape:zoom="14.75"
     inkscape:cx="8"
     inkscape:cy="8"
     inkscape:window-x="65"
     inkscape:window-y="24"
     inkscape:window-maximized="0"
     inkscape:current-layer="svg2" />
  <path
     style="fill:#353535;fill-opacity:1"
     d="M 1.5996094 0 C 0.71320937 2.9605947e-16 0 0.71320937 0 1.5996094 L 0 14.400391 C 2.9605947e-16 15.286791 0.71320937 16 1.5996094 16 L 14.400391 16 C 15.286791 16 16 15.286791 16 14.400391 L 16 1.5996094 C 16 0.71320937 15.286791 0 14.400391 0 L 1.5996094 0 z M 5.0605469 4.859375 L 5.671875 4.859375 L 5.671875 9.1347656 C 5.671875 9.4347656 5.6420313 9.7127031 5.5820312 9.9707031 C 5.5220313 10.222703 5.4175781 10.444719 5.2675781 10.636719 C 5.1235781 10.822719 4.9276406 10.970125 4.6816406 11.078125 C 4.4416406 11.180125 4.1394375 11.230469 3.7734375 11.230469 C 3.5574375 11.230469 3.3596875 11.209969 3.1796875 11.167969 C 2.9996875 11.131969 2.8391719 11.087203 2.7011719 11.033203 C 2.5631719 10.979203 2.4475625 10.921328 2.3515625 10.861328 C 2.2615625 10.801328 2.1925313 10.747219 2.1445312 10.699219 L 2.4316406 10.205078 C 2.4856406 10.253078 2.5509063 10.307188 2.6289062 10.367188 C 2.7129063 10.421188 2.8099687 10.471531 2.9179688 10.519531 C 3.0259687 10.567531 3.1453438 10.606719 3.2773438 10.636719 C 3.4093438 10.666719 3.5529844 10.681641 3.7089844 10.681641 C 4.1709844 10.681641 4.5105625 10.562266 4.7265625 10.322266 C 4.9485625 10.076265 5.0605469 9.6583125 5.0605469 9.0703125 L 5.0605469 4.859375 z M 8.6347656 6.3359375 C 8.9407656 6.3359375 9.2001563 6.3807031 9.4101562 6.4707031 C 9.6261562 6.5547031 9.7996406 6.6740781 9.9316406 6.8300781 C 10.06364 6.9800781 10.15875 7.1591406 10.21875 7.3691406 C 10.27875 7.5791406 10.310547 7.8086875 10.310547 8.0546875 L 10.310547 10.988281 C 10.250547 11.006281 10.162828 11.026781 10.048828 11.050781 C 9.9348284 11.068781 9.8023438 11.089281 9.6523438 11.113281 C 9.5023437 11.137281 9.3344375 11.155969 9.1484375 11.167969 C 8.9684375 11.185969 8.7818437 11.195313 8.5898438 11.195312 C 8.3438438 11.195312 8.11625 11.167281 7.90625 11.113281 C 7.70225 11.059281 7.5231875 10.975328 7.3671875 10.861328 C 7.2171875 10.741328 7.0958594 10.592109 7.0058594 10.412109 C 6.9218594 10.226109 6.8808594 10.000328 6.8808594 9.7363281 C 6.8808594 9.4843281 6.9293906 9.2698437 7.0253906 9.0898438 C 7.1213906 8.9098438 7.2556875 8.7624375 7.4296875 8.6484375 C 7.6036875 8.5284375 7.8107813 8.4407187 8.0507812 8.3867188 C 8.2907812 8.3327188 8.5519844 8.3066406 8.8339844 8.3066406 C 8.9179844 8.3066406 9.00375 8.3122187 9.09375 8.3242188 C 9.18975 8.3302187 9.2812344 8.341375 9.3652344 8.359375 C 9.4552344 8.371375 9.5298437 8.3862969 9.5898438 8.4042969 C 9.6558437 8.4162969 9.7006094 8.4294063 9.7246094 8.4414062 L 9.7246094 8.1523438 C 9.7246094 7.9903437 9.7134531 7.8355469 9.6894531 7.6855469 C 9.6654531 7.5295469 9.6113438 7.3914844 9.5273438 7.2714844 C 9.4493437 7.1454844 9.3355469 7.0466094 9.1855469 6.9746094 C 9.0415469 6.8966094 8.849375 6.8574219 8.609375 6.8574219 C 8.267375 6.8574219 8.01175 6.8816875 7.84375 6.9296875 C 7.67575 6.9776875 7.5526094 7.016875 7.4746094 7.046875 L 7.3945312 6.5332031 C 7.4965312 6.4852031 7.6513281 6.4404375 7.8613281 6.3984375 C 8.0773281 6.3564375 8.3347656 6.3359375 8.6347656 6.3359375 z M 12.488281 8.7539062 C 12.691081 8.7539062 12.863512 8.7793781 13.007812 8.8300781 C 13.156012 8.8807781 13.279453 8.953275 13.376953 9.046875 C 13.474453 9.136575 13.54695 9.2463 13.59375 9.375 C 13.64055 9.4997999 13.664063 9.6350031 13.664062 9.7832031 C 13.664062 10.021103 13.599403 10.217041 13.470703 10.369141 C 13.345903 10.517341 13.183275 10.625106 12.984375 10.691406 C 13.093575 10.718706 13.199381 10.759859 13.300781 10.818359 C 13.406081 10.872959 13.500131 10.945456 13.582031 11.035156 C 13.663931 11.120956 13.728597 11.226762 13.779297 11.351562 C 13.829997 11.476362 13.855469 11.623316 13.855469 11.791016 C 13.855469 11.962616 13.824119 12.119372 13.761719 12.263672 C 13.703219 12.407972 13.615041 12.535331 13.494141 12.644531 C 13.377141 12.749831 13.226269 12.834084 13.042969 12.896484 C 12.859669 12.954984 12.646091 12.984375 12.400391 12.984375 C 12.271691 12.984375 12.152169 12.974578 12.042969 12.955078 C 11.937669 12.939478 11.843619 12.919884 11.761719 12.896484 C 11.679819 12.873084 11.609281 12.849572 11.550781 12.826172 C 11.496181 12.802772 11.455034 12.783178 11.427734 12.767578 L 11.527344 12.427734 C 11.550744 12.443334 11.589931 12.462928 11.644531 12.486328 C 11.699131 12.509728 11.763791 12.533241 11.837891 12.556641 C 11.915891 12.576141 12.002103 12.593775 12.095703 12.609375 C 12.193203 12.624975 12.299009 12.632813 12.412109 12.632812 C 12.782609 12.632812 13.047131 12.556397 13.207031 12.404297 C 13.366931 12.248297 13.447266 12.040597 13.447266 11.779297 C 13.447266 11.607697 13.413956 11.464663 13.347656 11.351562 C 13.285256 11.238462 13.197084 11.148331 13.083984 11.082031 C 12.974784 11.011831 12.845466 10.962847 12.697266 10.935547 C 12.552966 10.904347 12.400128 10.888672 12.236328 10.888672 L 12.177734 10.888672 L 12.177734 10.574219 L 12.3125 10.574219 C 12.4178 10.574219 12.523613 10.564422 12.632812 10.544922 C 12.745913 10.521522 12.8478 10.480375 12.9375 10.421875 C 13.0311 10.363375 13.107516 10.285 13.166016 10.1875 C 13.228416 10.09 13.259766 9.9646001 13.259766 9.8125 C 13.259766 9.6838 13.238213 9.5760281 13.195312 9.4863281 C 13.152413 9.3927281 13.093631 9.3182719 13.019531 9.2636719 C 12.949331 9.2090719 12.865078 9.1698844 12.767578 9.1464844 C 12.673978 9.1191844 12.576003 9.1054687 12.470703 9.1054688 C 12.260103 9.1054688 12.095516 9.1348594 11.978516 9.1933594 C 11.861516 9.2518594 11.765506 9.3067219 11.691406 9.3574219 L 11.527344 9.0585938 C 11.566344 9.0312937 11.615328 8.9999438 11.673828 8.9648438 C 11.736228 8.9297438 11.808725 8.8964344 11.890625 8.8652344 C 11.972525 8.8340344 12.062656 8.8085625 12.160156 8.7890625 C 12.261556 8.7656625 12.371281 8.7539062 12.488281 8.7539062 z M 8.8164062 8.8105469 C 8.6724063 8.8105469 8.5212344 8.8217031 8.3652344 8.8457031 C 8.2092344 8.8637031 8.0655937 8.9084688 7.9335938 8.9804688 C 7.8015938 9.0464687 7.693375 9.1397656 7.609375 9.2597656 C 7.525375 9.3797656 7.484375 9.5383281 7.484375 9.7363281 C 7.484375 9.9103281 7.5104531 10.057734 7.5644531 10.177734 C 7.6244531 10.297734 7.7065937 10.394797 7.8085938 10.466797 C 7.9165938 10.538797 8.0415469 10.592906 8.1855469 10.628906 C 8.3355469 10.658906 8.5034531 10.673828 8.6894531 10.673828 C 8.9174531 10.673828 9.1152031 10.666297 9.2832031 10.654297 C 9.4572031 10.636297 9.6046094 10.615797 9.7246094 10.591797 L 9.7246094 8.953125 C 9.6586094 8.923125 9.5541563 8.8932812 9.4101562 8.8632812 C 9.2661563 8.8272813 9.0684062 8.8105469 8.8164062 8.8105469 z "
     id="path4" />
</svg>

<svg xmlns="http://www.w3.org/2000/svg" viewBox="0 0 16 16">
 <path d="m 1.6 0 c -0.886 0 -1.6 0.713 -1.6 1.6 l 0 12.801 c 0 0.886 0.713 1.6 1.6 1.6 l 12.801 0 c 0.886 0 1.6 -0.713 1.6 -1.6 l 0 -12.801 c 0 -0.886 -0.713 -1.6 -1.6 -1.6 l -12.801 0 z m 3.461 4.859 l 0.611 0 l 0 4.275 c 0 0.3 -0.03 0.578 -0.09 0.836 c -0.06 0.252 -0.164 0.474 -0.314 0.666 c -0.144 0.186 -0.34 0.333 -0.586 0.441 c -0.24 0.102 -0.542 0.152 -0.908 0.152 c -0.216 0 -0.414 -0.021 -0.594 -0.063 c -0.18 -0.036 -0.341 -0.081 -0.479 -0.135 c -0.138 -0.054 -0.254 -0.112 -0.35 -0.172 c -0.09 -0.06 -0.159 -0.114 -0.207 -0.162 l 0.287 -0.494 c 0.054 0.048 0.119 0.102 0.197 0.162 c 0.084 0.054 0.181 0.104 0.289 0.152 c 0.108 0.048 0.227 0.087 0.359 0.117 c 0.132 0.03 0.276 0.045 0.432 0.045 c 0.462 0 0.802 -0.119 1.018 -0.359 c 0.222 -0.246 0.334 -0.664 0.334 -1.252 l 0 -4.211 z m 3.574 1.477 c 0.306 0 0.565 0.045 0.775 0.135 c 0.216 0.084 0.389 0.203 0.521 0.359 c 0.132 0.15 0.227 0.329 0.287 0.539 c 0.06 0.21 0.092 0.44 0.092 0.686 l 0 2.934 c -0.06 0.018 -0.148 0.038 -0.262 0.063 c -0.114 0.018 -0.246 0.038 -0.396 0.063 c -0.15 0.024 -0.318 0.043 -0.504 0.055 c -0.18 0.018 -0.367 0.027 -0.559 0.027 c -0.246 0 -0.474 -0.028 -0.684 -0.082 c -0.204 -0.054 -0.383 -0.138 -0.539 -0.252 c -0.15 -0.12 -0.271 -0.269 -0.361 -0.449 c -0.084 -0.186 -0.125 -0.412 -0.125 -0.676 c 0 -0.252 0.049 -0.466 0.145 -0.646 c 0.096 -0.18 0.23 -0.327 0.404 -0.441 c 0.174 -0.12 0.381 -0.208 0.621 -0.262 c 0.24 -0.054 0.501 -0.08 0.783 -0.08 c 0.084 0 0.17 0.006 0.26 0.018 c 0.096 0.006 0.187 0.017 0.271 0.035 c 0.09 0.012 0.165 0.027 0.225 0.045 c 0.066 0.012 0.111 0.025 0.135 0.037 l 0 -0.289 c 0 -0.162 -0.011 -0.317 -0.035 -0.467 c -0.024 -0.156 -0.078 -0.294 -0.162 -0.414 c -0.078 -0.126 -0.192 -0.225 -0.342 -0.297 c -0.144 -0.078 -0.336 -0.117 -0.576 -0.117 c -0.342 0 -0.598 0.024 -0.766 0.072 c -0.168 0.048 -0.291 0.087 -0.369 0.117 l -0.08 -0.514 c 0.102 -0.048 0.257 -0.093 0.467 -0.135 c 0.216 -0.042 0.473 -0.063 0.773 -0.063 z m 3.854 2.418 c 0.203 0 0.375 0.025 0.52 0.076 c 0.148 0.051 0.272 0.123 0.369 0.217 c 0.098 0.09 0.17 0.199 0.217 0.328 c 0.047 0.125 0.07 0.26 0.07 0.408 c 0 0.238 -0.065 0.434 -0.193 0.586 c -0.125 0.148 -0.287 0.256 -0.486 0.322 c 0.109 0.027 0.215 0.068 0.316 0.127 c 0.105 0.055 0.199 0.127 0.281 0.217 c 0.082 0.086 0.147 0.192 0.197 0.316 c 0.051 0.125 0.076 0.272 0.076 0.439 c 0 0.172 -0.031 0.328 -0.094 0.473 c -0.058 0.144 -0.147 0.272 -0.268 0.381 c -0.117 0.105 -0.268 0.19 -0.451 0.252 c -0.183 0.059 -0.397 0.088 -0.643 0.088 c -0.129 0 -0.248 -0.01 -0.357 -0.029 c -0.105 -0.016 -0.199 -0.035 -0.281 -0.059 c -0.082 -0.023 -0.152 -0.047 -0.211 -0.07 c -0.055 -0.023 -0.096 -0.043 -0.123 -0.059 l 0.1 -0.34 c 0.023 0.016 0.063 0.035 0.117 0.059 c 0.055 0.023 0.119 0.047 0.193 0.07 c 0.078 0.019 0.164 0.037 0.258 0.053 c 0.098 0.016 0.203 0.023 0.316 0.023 c 0.371 0 0.635 -0.076 0.795 -0.229 c 0.16 -0.156 0.24 -0.364 0.24 -0.625 c 0 -0.172 -0.033 -0.315 -0.1 -0.428 c -0.062 -0.113 -0.151 -0.203 -0.264 -0.27 c -0.109 -0.07 -0.239 -0.119 -0.387 -0.146 c -0.144 -0.031 -0.297 -0.047 -0.461 -0.047 l -0.059 0 l 0 -0.314 l 0.135 0 c 0.105 0 0.211 -0.01 0.32 -0.029 c 0.113 -0.023 0.215 -0.065 0.305 -0.123 c 0.094 -0.059 0.17 -0.137 0.229 -0.234 c 0.062 -0.098 0.094 -0.223 0.094 -0.375 c 0 -0.129 -0.022 -0.236 -0.064 -0.326 c -0.043 -0.094 -0.102 -0.168 -0.176 -0.223 c -0.07 -0.055 -0.154 -0.094 -0.252 -0.117 c -0.094 -0.027 -0.192 -0.041 -0.297 -0.041 c -0.211 0 -0.375 0.029 -0.492 0.088 c -0.117 0.059 -0.213 0.113 -0.287 0.164 l -0.164 -0.299 c 0.039 -0.027 0.088 -0.059 0.146 -0.094 c 0.062 -0.035 0.135 -0.068 0.217 -0.1 c 0.082 -0.031 0.172 -0.057 0.27 -0.076 c 0.101 -0.023 0.211 -0.035 0.328 -0.035 z m -3.672 0.057 c -0.144 0 -0.295 0.011 -0.451 0.035 c -0.156 0.018 -0.3 0.063 -0.432 0.135 c -0.132 0.066 -0.24 0.159 -0.324 0.279 c -0.084 0.12 -0.125 0.279 -0.125 0.477 c 0 0.174 0.026 0.321 0.08 0.441 c 0.06 0.12 0.142 0.217 0.244 0.289 c 0.108 0.072 0.233 0.126 0.377 0.162 c 0.15 0.03 0.318 0.045 0.504 0.045 c 0.228 0 0.426 -0.008 0.594 -0.02 c 0.174 -0.018 0.321 -0.038 0.441 -0.063 l 0 -1.639 c -0.066 -0.03 -0.17 -0.06 -0.314 -0.09 c -0.144 -0.036 -0.342 -0.053 -0.594 -0.053 z" style="fill:#353535;fill-opacity:1"/>
</svg>
